!!!COM: Palestrina, Giovanni Perluigi da
!!!OPR: Vestiva i colli
!!!OTL: Kyrie II
**kern	**kern	**kern	**kern	**kern
*Ibass	*Itenor	*Itenor	*Icalto	*Icant
!Bassus	!Tenor 2	!Tenor 1	!Altus	!Cantus
*clefF4	*clefGv2	*clefGv2	*clefG2	*clefG2
*k[]	*k[]	*k[]	*k[]	*k[]
*A:aeo	*A:aeo	*A:aeo	*A:aeo	*A:aeo
*M4/2	*M4/2	*M4/2	*M4/2	*M4/2
=1	=1	=1	=1	=1
0r	1r	2.a	0r	0r
.	.	4a	.	.
.	2.a	2a	.	.
.	.	2d	.	.
.	4a	.	.	.
=2	=2	=2	=2	=2
2.d	2a	1f	2r	0r
.	2d	.	2.a	.
4d	.	.	.	.
2d	2f	2d	.	.
.	.	.	4a	.
2A	[2e	[2c	2a	.
=3	=3	=3	=3	=3
2.c	2e]	4c]	2g	0r
.	.	4d	.	.
.	4A	2.e	2.cc	.
4B	4B	.	.	.
[1A	4c	.	.	.
.	4d	4d	4b	.
.	2e	4c	2a	.
.	.	4B	.	.
=4	=4	=4	=4	=4
2A]	1e	2A	2cc	1r
2G#	.	2B	2.b	.
1A	[1e	1c	.	2r
.	.	.	4a	.
.	.	.	[2a	[2ee
=5	=5	=5	=5	=5
1E	1e]	1B	2a]	4ee]
.	.	.	.	4ee
.	.	.	2g#	2ee
2.F	2r	2A	1a	2cc
.	[2a	2c	.	[2ff
4E	.	.	.	.
=6	=6	=6	=6	=6
1.D	4a]	1d	2.f	4ff]
.	4a	.	.	4ee
.	2a	.	.	2dd
.	.	.	4g	.
.	2d	1A	[1a	2ff
2C#	2e	.	.	[2ee
=7	=7	=7	=7	=7
1D	1f	1r	1a]	2ee]
.	.	.	.	1dd
1A	1e	2r	2r	.
.	.	[2e	[2a	2cc
=8	=8	=8	=8	=8
1E	0r	4e]	2a]	1b
.	.	4e	.	.
.	.	2e	2g#	.
1F	.	2c	1a	[1a
.	.	[2f	.	.
=9	=9	=9	=9	=9
1D	2.d	4f]	2r	2a]
.	.	4e	.	.
.	.	2d	2.a	4f
.	4d	.	.	4g
1r	2d	2f	.	4a
.	.	.	4a	4b
.	2A	[2e	2a	2cc
=10	=10	=10	=10	=10
0r	2c	2e]	2e	1g
.	2B	1d	2g	.
.	2A	.	2f	1a
.	[2a	4c	4e	.
.	.	4B	4d	.
=11	=11	=11	=11	=11
2.A	4a]	2c	1e	0r
.	4a	.	.	.
.	2a	2A	.	.
4A	.	.	.	.
2A	2e	2.c	1a	.
2F	2f	.	.	.
.	.	4d	.	.
=12	=12	=12	=12	=12
1c	4g	2.e	1g	2r
.	4f	.	.	.
.	4e	.	.	2.ee
.	4d	4f	.	.
2C	4e	2g	1r	.
.	4d	.	.	4ee
2C	4c	2e	.	2ee
.	4B	.	.	.
=13	=13	=13	=13	=13
2F	4A	1f	2.a	2cc
.	4B	.	.	.
2F	2c	.	.	1ff
.	.	.	4a	.
1D	1d	1r	2a	.
.	.	.	2f	2dd
=14	=14	=14	=14	=14
0C	0g	2.e	1cc	2ee
.	.	.	.	2.gg
.	.	4e	.	.
.	.	2e	2c	.
.	.	.	.	4ff
.	.	2c	[2cc	2ee
=15	=15	=15	=15	=15
1r	1r	1g	2cc]	1dd
.	.	.	2b	.
2.A	2r	1c	2cc	2ee
.	[2e	.	[2a	[2cc
4A	.	.	.	.
=16	=16	=16	=16	=16
2A	4e]	0r	2a]	2cc]
.	4e	.	.	.
2E	2e	.	2g#	2b
2.F	1c	.	1a	2a
.	.	.	.	[2ff
4E	.	.	.	.
=17	=17	=17	=17	=17
1.D	1d	2.a	2.f	2ff]
.	.	.	.	2dd
.	.	4a	4e	.
.	1A	2a	2d	2ff
2A	.	2e	2c#	2ee
=18	=18	=18	=18	=18
2D	2.a	2.f	2d	2dd
2.F	.	.	2A	2cc
.	4a	4e	.	.
.	2a	2d	1A	2dd
4D	.	.	.	.
2A	2e	2c#	.	2ee
=19	=19	=19	=19	=19
1D	2.f	1.d	[0a	2dd
.	.	.	.	1ff
.	4e	.	.	.
1r	2d	.	.	.
.	2c#	2e	.	[2ee
=20	=20	=20	=20	=20
0r	1d	1f	1a]	4ee]
.	.	.	.	4dd
.	.	.	.	1dd
.	1A	1e	2r	.
.	.	.	[2a	2cc#
=21	=21	=21	=21	=21
2.d	2r	2f	4a]	1dd
.	.	.	4a	.
.	2f	2d	2a	.
4d	.	.	.	.
2d	2d	2.a	2f	1r
2A	2e	.	[2cc	.
.	.	8g	.	.
.	.	8f	.	.
=22	=22	=22	=22	=22
2.c	1.A	0e	4cc]	0r
.	.	.	4b	.
.	.	.	2a	.
4B	.	.	.	.
2A	.	.	2cc	.
2G#	2B	.	[2b	.
=23	=23	=23	=23	=23
1A	1c	1r	4b]	2.ee
.	.	.	4a	.
.	.	.	1a	.
.	.	.	.	4ee
1E	1B	2.e	.	2ee
.	.	.	2g#	2b
.	.	4e	.	.
=24	=24	=24	=24	=24
0r	1A	2e	1a	2.cc
.	.	1f	.	.
.	.	.	.	4b
.	1c	.	1r	2a
.	.	2e	.	2g
=25	=25	=25	=25	=25
0r	2f	2d	1r	2a
.	2e	2c#	.	1ee
.	1f	1d	2.a	.
.	.	.	.	[2dd
.	.	.	4a	.
=26	=26	=26	=26	=26
1r	2e	1A	2a	2dd]
.	2.a	.	2e	2cc#
2.d	.	1r	2f	[1dd
.	4a	.	.	.
.	2a	.	2d	.
4d	.	.	.	.
=27	=27	=27	=27	=27
2d	2d	0r	1a	2dd]
2A	1f	.	.	2.cc
2.c	.	.	2g	.
.	.	.	.	8b
.	.	.	.	8a
.	2e	.	[2cc	2g
4B	.	.	.	.
=28	=28	=28	=28	=28
1.A	2.c	2.e	4cc]	1a
.	.	.	4cc	.
.	.	.	2a	.
.	4B	4e	.	.
.	2A	2e	2cc	1ee
2G#	2e	2B	[2b	.
=29	=29	=29	=29	=29
1A	0e	1c	4b]	2r
.	.	.	4a	.
.	.	.	1a	2.ee
1E	.	1B	.	.
.	.	.	.	4ee
.	.	.	2g#	2ee
=30	=30	=30	=30	=30
2.F	2r	[0A	[0a	2cc
.	2c	.	.	2.ff
4E	.	.	.	.
[1D	2.f	.	.	.
.	.	.	.	4ee
.	.	.	.	2dd
.	4e	.	.	.
=31	=31	=31	=31	=31
2D]	2d	1A_	1a_	2ff
2C#	2e	.	.	2ee
1D	1f	1A_	1a_	1dd
=32	=32	=32	=32	=32
0AA	0e	0A]	0a]	0cc#
==	==	==	==	==
*-	*-	*-	*-	*-
!!!CDT: 1525/^1526/-1594/2/2
!!!OCY: Italia
!!!AGN: Mass (Parody)
!!!AST: renaissance, vocal
!!!ASW: Madrigal 1566 (Palestrina)
!!!PWK: Masses, Book 9
!!!RNB: Cadence finals: D
!!!YOR: Le Opere Complete, v. 25, p. 54
!!!YOO: Rome, Italy: Fratelli Scalera
!!!END: 1992//
!!!EED: John Miller
!!!YEC: Copyright 2000, John Miller
!!!YEN: United States of America
!!!YEM: Rights to all derivative electronic formats reserved.
!!!YEM: Refer to licensing agreement for further details.
!!!YEM: This file must be accompanied by the licensing agreement.
!!!YEM: A copy of the licensing agreement may be found at http://www.music-cog.ohio-state.edu/HumdrumDatabases/Palestrina/license.txt
!!!EMD: converted to Humdrum by Bret Aarden
